X: 3933
T: Blackbird, The
R: hornpipe
M: 4/4
K: Dmixolydian
|:dc|B2~B2 cABG|AF~F2 ABcA|d.fe^c d=cAF|GAGF DEDE|
FEFG A2 (3.g.fe|d.fe^c d=cAF|GBAF ~D2D2|D2:|
|:de|fede fd (3efg|~a3g fgaf|g2{a}gf gbaf|gagf d^cde|
fede fd (3efg|~a3g fgaf|gagf d2d^c|defg ~a3g|
fgaf g2ge|fde^c d=cAB|cBcd efge|a2~a2 ~A3G|
FADA c2e^c|dcAF GBAF|D2D2 D2:|

